X: 74
T: Ciebie my wiecznie wyznawać będziemy
C: Mikołaj Gomółka
%%abc-version 2.0
%%abcx-abcm2ps-target-version 5.9.1 (29 Sep 2008)
%%abc-creator hum2abc beta
%%abcx-conversion-date 2021/10/04 07:59:10
%%abc-edited-by Anna Matuszewska
%%abcx-initial-encoding-date 2020-02-14
%%humdrum-veritas 934057804
%%humdrum-veritas-data 1977711956
%%linebreak <none>
%%barnumbers 0
L: 1/4
M: 4/2
N: Derived from pl-wn--sd-xvi-qu-273--075_gomolka-mikolaj--ciebie-my-wiecznie-wyznawac-bedziemy.krn
%%staves [1 2 3 4]
V: 1
V: 2 clef=alto
V: 3 clef=alto
V: 4
K: C
[V:1] G4ABc4 | 
[V:2] D2>E2F2G2 | 
[V:3] B,4CDE4 | 
[V:4] G,4F,2E,2 [|] 
[V:1] BAB4 | 
[V:2] G4G2D2 | 
[V:3] DCB,A,B,C | 
[V:4] C,D,E,F,G,4 [|] 
[V:1] A2B2AGG4 | 
[V:2] F2D2E2E2 | 
[V:3] D2B,2C3B, | 
[V:4] D,2G,2C,2C,2 [|] 
[V:1] F2G4 | 
[V:2] D2>C2B,4 | 
[V:3] A,G,A,2G,4 | 
[V:4] D,4G,4 | 
[V:1] d4c2BA [I:setbarnb 6]| 
[V:2] G4EFG4 | 
[V:3] B,4C2D2 | 
[V:4] G,4A,2B,2 [|] 
[V:1] G2>A2Bcd2 | 
[V:2] F2GAB4 | 
[V:3] E2C2D2G4 | 
[V:4] C2A,2G,2G,2 [|] 
[V:1] e2dcBc2B | 
[V:2] A2G3F | 
[V:3] FEDCD2 | 
[V:4] E,2F,2G,4 [|] 
[V:1] c4e4 | 
[V:2] E4G4 | 
[V:3] C4G4 | 
[V:4] C,4C4 [|] 
[V:1] d2c4B2 | 
[V:2] A2A2G3F | 
[V:3] F2>E2DCD2 | 
[V:4] F,2F,2G,4 [|] 
[V:1] c8 | 
[V:2] E8 | 
[V:3] C8 | 
[V:4] C,8 | 


